X: 1
T:James Murray's
M: 6/8
L: 1/8
R: jig
K: Dmix
ABA DEG|AGE Adc|AGE cEE|GEE DEG|
ABA DEG|AGE Adc|AGE cEE|DED D3:|
Adc ABc|d2e dcA|GEE cEE|GEE DEG|
Adc ABc|d2e dcA|GEE cEE|DED D3|
Adc ABc|d2e dcA|GEE cEE|GEE DEG|
Adc ABc|def dcA|GEE cEE|DED D3|
